X: 356
T:Fergal's Trip to Herschel
R:reel
C:Peter Holmes
Z:Andrew Le Blanc
M:4/4
L:1/8
Q:100
K:Am
||:e2ce Aece | a^gaf ecAc | B2GB dBGB |cBcd e^def| e2^de ceAe |a^gaf e^de^f
|~g3e dBGB |1 cBdB A4:|2 cBdB A^GAB||
~c3d ~e3^d | efed cBcd | ~B3c d3e | dcBA G4 | ~F3G ~A3 ^G| A_BAG FEF
G | E2 EF EDCB, |1A,B,CD E^GAB:|2 A,B,CB, A,4 ||
<end>
<start>
